assets/icons/24px/stroke/graph-line-down-24px.svg

<svg width="24" height="24" viewBox="0 0 24 24" fill="none" xmlns="http://www.w3.org/2000/svg">
<path fill-rule="evenodd" clip-rule="evenodd" d="M3 2C3.55229 2 4 2.44772 4 3V17C4 17.9711 4.00213 18.5988 4.06431 19.0613C4.12263 19.495 4.21677 19.631 4.2929 19.7071C4.36902 19.7832 4.50497 19.8774 4.93871 19.9357C5.40121 19.9979 6.02893 20 7 20H21C21.5523 20 22 20.4477 22 21C22 21.5523 21.5523 22 21 22L6.9342 22C6.0477 22.0001 5.28388 22.0001 4.67221 21.9179C4.0167 21.8297 3.38835 21.631 2.87868 21.1213C2.36902 20.6117 2.17028 19.9833 2.08215 19.3278C1.99991 18.7161 1.99995 17.9523 2 17.0658L2 3C2 2.44772 2.44772 2 3 2ZM6.9005 2.50496C7.45005 2.45001 7.94009 2.85095 7.99504 3.4005L8.5453 8.90306C8.60237 9.47383 8.64097 9.85511 8.68474 10.1241C8.69005 10.1567 8.69515 10.1858 8.7 10.2116C8.71494 10.19 8.73143 10.1656 8.74958 10.1379C8.89911 9.91006 9.08931 9.57816 9.3739 9.08012C9.38529 9.06018 9.39736 9.04065 9.41009 9.02155L10.2421 9.57623L9.3739 9.08012L9.3906 9.05089C9.60122 8.68229 9.78367 8.36296 9.94372 8.12142C10.093 7.89608 10.3152 7.58841 10.6485 7.3952C11.4352 6.93915 12.4306 7.07129 13.0712 7.71683C13.3425 7.9903 13.4767 8.34527 13.562 8.60176C13.6535 8.87667 13.7463 9.23252 13.8535 9.64326L13.8616 9.67435C13.8617 9.67487 13.8618 9.6754 13.862 9.67592L15.1471 14.6023C15.2675 15.0637 15.3438 15.3536 15.4136 15.5566C15.4196 15.574 15.4252 15.5898 15.4305 15.604C15.4404 15.5925 15.4511 15.5796 15.4628 15.5654C15.5989 15.3994 15.7714 15.1543 16.0448 14.7636C16.0511 14.7546 16.0575 14.7458 16.0641 14.737L16.8641 15.337L16.0448 14.7636L16.0656 14.734C16.2836 14.4225 16.4793 14.1429 16.654 13.9302C16.8274 13.7191 17.0735 13.4529 17.425 13.2983C18.1011 13.0009 18.8861 13.1003 19.4667 13.5569C19.7685 13.7942 19.9405 14.1133 20.0558 14.361C20.172 14.6105 20.2918 14.9301 20.4253 15.286L20.9363 16.6489C21.1303 17.166 20.8682 17.7424 20.3511 17.9363C19.834 18.1302 19.2576 17.8682 19.0637 17.3511L18.5653 16.0222C18.4151 15.6216 18.3222 15.376 18.2427 15.2051C18.2365 15.1918 18.2307 15.1797 18.2253 15.1687C18.2174 15.178 18.2088 15.1883 18.1995 15.1996C18.0798 15.3453 17.9287 15.56 17.6833 15.9105C17.6771 15.9194 17.6706 15.9283 17.6641 15.937L16.8641 15.337M11.9271 10.1822L13.2213 15.1433C13.3294 15.5577 13.4246 15.9229 13.5223 16.2069C13.6164 16.4805 13.7645 16.8472 14.0671 17.1257C14.6379 17.651 15.461 17.7989 16.1789 17.5051C16.5595 17.3494 16.826 17.0572 17.0095 16.8334C17.1999 16.6012 17.4163 16.292 17.6619 15.9411L17.6833 15.9105M11.9271 10.1822C11.9326 10.2032 11.9388 10.224 11.9457 10.2446L12.8944 9.92834L11.9267 10.1808L11.9271 10.1822ZM11.9271 10.1822L11.9267 10.1808C11.8086 9.72804 11.7323 9.43749 11.6643 9.23322C11.6573 9.21205 11.6507 9.19316 11.6447 9.17639C11.6959 9.10296 11.7203 9.07745 11.7199 9.07706C11.7195 9.07669 11.6961 9.09964 11.6515 9.12552C11.6151 9.08889 11.5985 9.06063 11.5981 9.06089C11.5976 9.06116 11.6145 9.09215 11.6447 9.17639C11.6345 9.19101 11.6233 9.20753 11.6109 9.22614C11.492 9.4056 11.3425 9.66615 11.1104 10.0724C11.099 10.0923 11.0869 10.1119 11.0742 10.1309L10.2421 9.57623L11.1104 10.0724L11.0936 10.1019C10.8302 10.5627 10.6093 10.9493 10.4216 11.2353C10.2573 11.4856 10.0036 11.8502 9.62636 12.0518C8.76718 12.5109 7.70219 12.2842 7.10449 11.515C6.84203 11.1772 6.7588 10.7409 6.71071 10.4453C6.65577 10.1077 6.61147 9.66466 6.55867 9.13655L6.55534 9.10317C6.55614 9.11122 6.55705 9.11926 6.55805 9.12728L7.55033 9.00326L6.55534 9.10317C6.55533 9.10317 6.55534 9.10318 6.55534 9.10317L6.00497 3.5995C5.95001 3.04996 6.35096 2.55992 6.9005 2.50496" fill="white"/>
</svg>

<svg width="24" height="24" fill="none" xmlns="http://www.w3.org/2000/svg"><path fill-rule="evenodd" clip-rule="evenodd" d="M3 2a1 1 0 0 1 1 1v14c0 .971.002 1.599.064 2.061.059.434.153.57.229.646.076.076.212.17.646.229C5.4 19.998 6.029 20 7 20h14a1 1 0 1 1 0 2H6.934c-.886 0-1.65 0-2.262-.082-.655-.088-1.284-.287-1.793-.797-.51-.51-.709-1.138-.797-1.793C2 18.716 2 17.952 2 17.066V3a1 1 0 0 1 1-1zm3.9.505a1 1 0 0 1 1.095.896l.55 5.502c.057.57.096.952.14 1.221l.015.088.05-.074c.15-.228.34-.56.624-1.058a1 1 0 0 1 .036-.058l.832.554-.868-.496.017-.03c.21-.368.393-.687.553-.929.149-.225.371-.533.704-.726a2 2 0 0 1 2.423.322c.271.273.406.628.491.885.091.275.184.63.292 1.041l.008.031v.002l1.285 4.926a15.14 15.14 0 0 0 .284 1.002l.032-.039a15.055 15.055 0 0 0 .601-.828l.8.6-.82-.573.022-.03c.218-.312.413-.591.588-.804.173-.21.42-.477.771-.632a2 2 0 0 1 2.042.259c.302.237.474.556.589.804.116.25.236.57.37.925l.51 1.363a1 1 0 1 1-1.872.702l-.499-1.329a13.261 13.261 0 0 0-.34-.853c-.008.009-.016.02-.026.03a13.244 13.244 0 0 0-.535.738l-.8-.6m-4.937-5.155l1.294 4.961c.108.415.204.78.301 1.064.094.273.242.64.545.919a2 2 0 0 0 2.112.38c.38-.157.647-.449.83-.673.19-.232.407-.541.653-.892l.021-.03m-5.756-5.729a.971.971 0 0 0 .019.063l.948-.317-.967.253v.001zm0 0v-.001a17.21 17.21 0 0 0-.282-1.005c.05-.073.075-.099.075-.099s-.024.023-.069.049c-.036-.037-.053-.065-.053-.065s.016.031.047.115l-.034.05c-.119.18-.269.44-.5.846a1 1 0 0 1-.037.059l-.832-.555.868.496-.016.03c-.264.46-.485.847-.672 1.133-.165.25-.418.615-.796.817a2 2 0 0 1-2.522-.537c-.262-.338-.345-.774-.393-1.07-.055-.337-.1-.78-.152-1.308l-.004-.034a.97.97 0 0 0 .003.024l.992-.124-.995.1-.55-5.503a1 1 0 0 1 .896-1.095" fill="#fff"/></svg>
